X:228
T: "Rheinschifferlied"
N: Z0227
O: Europa, Mitteleuropa, Deutschland, Gegend bei Koeln
R: Schiffer - Lied
M: 4/4
L: 1/8
K: A
E2 | AGABcBcd | e2edc2
e2 | ddeec2e2 | ddeec2
E2 | AGABcBcd | e2edc2
e2 | ddeec2e2 | ddeec2
e2 | c2e2e2dc | d2f2f2
ed | c2e2e2dc | BBe3dc
B | AGABcBcd | feedc2
e2 | ddeec2e2 | ddeec2

